X:014
T:Waltz TS.014
M:3/8
L:1/8
Q:3/8=50
S:Thomas Sands’ MS,1810,Lincolnshire
R:waltz
C:Prefixed as ‘No.2′ in MS
O:England;Lincolnshire
Z:vmp.Ruairidh Greig, 2011
K:F
F/A/|ccf|c2A/c/|BB G/B/|AF F/A/|ccf|c2A/c/|BBG|F2:|
|:d|c/e/g/e/g/e/|c/f/a/f/a/f/|c/g/b/g/b/g/|a2f|”_f”c/e/g/e/g/e/|c/f/a/f/a/f/|(g//a//b//g//) fe|f2:|
|:”_p”e|fAB|c2d|cB/A/B/G/|AFc|fAB|c2f/c/|db/g/f/e/|f2||”repeat added”[e2B2G2]z:|[f2c2F2]|]

